X: 15205
T: Gin I Were Where Gadie Rins
R: polka
M: 2/4
K: Dmajor
AA/B/ dd/e/|ff fe/d/|f>f fe/d/|ee f/e/d/B/|
A/F/A/B/ d/c/d/e/|ff fe/f/|aA AB/c/|d2 d:|
AF FA|GE E>G|FD F/G/A|d2 cB|
AF F>A|GE E>G|FD F/G/A/F/|de/d/ d:|

